!!! OTL: Berkowitz364
!!! Chapter: 1
!!! Section: III
!!! Page: 89
!!! Mode: 
!!! Encoder: DJB
**kern
*staff1
*I"Piano
=1-
*clefC3
*k[f#]
*e:
*M3/4
4r
4r
4b\
=2
2f#\
4g\
=3
2d#\
4e\
=4
2cc\
4cc\
=5
4cc\
4b\
[4ee\
=6
4ee\]
4dd\
[4cc\
=7
4cc\]
4b\
[4a#\
=8
4a#\]
4ee\
4a#\
=9
4b\
4r
4cc\
=10
2b\
4cc\
=11
2a\
4cc\
=12
!!linebreak:original
2f#\
4a\
=13
2d#\
4cc\
=14
4b\
4g\
4e\
=15
4.g\
8a\
4f#\
=16
2f#\
4g\
=17
2e\
4r
==
*-
